!!!!SEGMENT: pl-gd--ee-1638--003-005_marenzio-luca--madrigali-a-quatro-voci-candido-leggiadretto.krn
!!!cenid: 15xx:979
!!!COM: Marenzio, Luca
!!!COM-rismID: pe30003955
!!!CDT: ~1553-1599/08/22
!!!CNT: Italian
!!!GTL: Madrigali a quatro voci
!!!OTL: Candido leggiadretto
!!!OMV: 005
!!!PDT: 1587
!!!AGN:
!!!SMS-siglum: PL-GD
!!!SMS-shelfmark: Ee 1638
!!!SMS-shelfwork: 003-005 G
!!!SMS-variant:
!!!SMS-altvar:
!!!NIFC-rismSourceID: 1001202747
!!!NIFC-rismChildID: 990039322
!!!NIFC-islandoraID: pl-gd:57883
!!!URL-pdf-islandora: https://repozytorium.nifc.pl/islandora/object/pl-gd%3A57883/datastream/PDF/view
!!!URL-scan: https://polish.musicsources.pl/pl/lokalizacje/galeria/klocki-introligatorskie/655 @EN{Scan on Polish Music Sources Website} @PL{Skany w portalu Dziedzictwo Muzyki Polskiej w otwartym dostępie}
!!!ONB-nifc: UWAGA: zbiór na stronach: Canto: s. 637-653, Alto: s. do 486-501, Tenore: s. do 334-349, Bassus: s. do 182-197. Uwaga: utwory podzielone wg tytułów w spisach treści dostępnych na końcu każdej księgi głosowej.
!!!AIN: 1 alto 1 bass 1 soprn 1 tenor
!!!key: F:lyd
**kern	**text	**kern	**text	**kern	**text	**kern	**text
*part4	*part4	*part3	*part3	*part2	*part2	*part1	*part1
*staff4	*staff4	*staff3	*staff3	*staff2	*staff2	*staff1	*staff1
*I"BASSO	*	*I"TENORE	*	*I"ALTO	*	*I"CANTO	*
*mI"Basso	*	*mI"Tenore	*	*mI"Alto	*	*mI"Soprano	*
*I'B	*	*I'T	*	*I'A	*	*I'S	*
*ICvox	*	*ICvox	*	*ICvox	*	*ICvox	*
*Ibass	*	*Itenor	*	*Ialto	*	*Isoprn	*
*clefF4	*	*clefC4	*	*clefC3	*	*clefC1	*
*	*	*mclefGv2	*	*mclefG2	*	*mclefG2	*
*k[b-]	*	*k[b-]	*	*k[b-]	*	*k[b-]	*
*F:lyd	*	*F:lyd	*	*F:lyd	*	*F:lyd	*
*M4/2	*	*M4/2	*	*M4/2	*	*M4/2	*
*met(C)	*	*met(C)	*	*met(C)	*	*met(C)	*
*mmet(c)	*	*mmet(c)	*	*mmet(c)	*	*mmet(c)	*
=1-	=1-	=1-	=1-	=1-	=1-	=1-	=1-
*xywh-pl-gd--ee1638-8o--0184:4673,599,3372,759	*	*xywh-pl-gd--ee1638-8o--0336:4558,1781,3378,641	*	*xywh-pl-gd--ee1638-8o--0488:4582,1832,3263,613	*	*xywh-pl-gd--ee1638-8o--0640:4598,1180,3381,702	*
!LO:TX:b:t=CAndido.:mod=	!	!LO:TX:a:t=Seconda parte.:mod=	!	!	!	!LO:MO:mod=!LO&colon;TX&colon;a&colon;t=Seconda parte	!
!LO:TX:a:t=Seconda parte.:mod=	!	!LO:TX:b:t=CAndido:mod=	!	!	!	!null	!LO:MO:mod=Can-
00r	.	0r	.	2r	.	2.g/	CAn-
!	!	!	!	!	!LO:MO:mod=Can-	!	!
.	.	.	.	2.c/	CAn-	.	.
.	.	.	.	.	.	4g/	-di-
.	.	.	.	.	.	2g/	-do
.	.	.	.	4c/	-di-	.	.
.	.	.	.	2c/	-do	4.cc\	leg-
.	.	.	.	.	.	8b-\	-gia-
=2-	=2-	=2-	=2-	=2-	=2-	=2-	=2-
.	.	0r	.	4.f\	leg-	4a\	-dret-
.	.	.	.	.	.	4cc\	to e
.	.	.	.	8e\	-gia-	.	.
.	.	.	.	4d\	-dret-	4b-\	ca-
.	.	.	.	4f\	to e	4a\	-ro
.	.	.	.	8B-/	ca-	4.dd\	guan-
.	.	.	.	8c/	.	.	.
.	.	.	.	8d\	.	.	.
.	.	.	.	8e\	.	16cc\	.
.	.	.	.	.	.	16b-\	.
!	!	!	!	!	!	!LO:SIC:s=8aL	!
.	.	.	.	8f\	.	8a\	.
.	.	.	.	8g\	.	8b-\	.
.	.	.	.	8a\	.	8cc\	.
!	!	!	!	!	!	!LO:SIC:s=8aJ	!
!	!	!	!	!	!	!LO:SIC:v:t=custos b	!
.	.	.	.	8f\	.	8a\	.
*	*	*	*	*	*	*xywh-pl-gd--ee1638-8o--0640:4692,1754,3346,678	*
!	!	!	!	!	!	!LO:LB:g=original	!
=3-	=3-	=3-	=3-	=3-	=3-	=3-	=3-
!	!	!	!	!	!	!LO:N:acc=#	!
1r	.	2r	.	4g\	.	4bn\	.
.	.	.	.	4e\	-ro	2cc\	.
*	*	*xywh-pl-gd--ee1638-8o--0336:4558,1781,3378,641	*	*	*	*	*
.	.	2.G/	Che	2d\	guan-	.	.
!	!	!	!	!	!	!LO:SIC:s=4b	!
!	!	!	!	!	!	!LO:N:acc=#	!
.	.	.	.	.	.	4bn\	.
2.C/	Che	.	.	1e	-to	1cc	-to
.	.	4G/	co-	.	.	.	.
.	.	2G/	-pria	.	.	.	.
4C/	co-	.	.	.	.	.	.
=4-	=4-	=4-	=4-	=4-	=4-	=4-	=4-
2C/	-pria	4.c\	net-	00r	.	0r	.
.	.	8B-\	to a-	.	.	.	.
!	!	!	!LO:MO:mod=-vo-	!	!	!	!
4.F\	net-	4A/	-uo-	.	.	.	.
.	.	4c\	rio e	.	.	.	.
8E\	to a-	.	.	.	.	.	.
!	!LO:MO:mod=-vo-	!	!	!	!	!	!
4D/	-uo-	4B-\	fre-	.	.	.	.
4F\	rio e	4A/	-ſche	.	.	.	.
8BB-/	fre-	4.d\	ro-	.	.	.	.
8C/	.	.	.	.	.	.	.
8D/	.	.	.	.	.	.	.
!	!	!LO:SIC:s=16cLL	!	!	!	!	!
8E\	.	16c\	.	.	.	.	.
!	!	!LO:SIC:s=16B-JJ	!	!	!	!	!
!	!	!LO:SIC:v:t=custos A	!	!	!	!	!
.	.	16B-\	.	.	.	.	.
*	*	*xywh-pl-gd--ee1638-8o--0336:4507,2351,3429,569	*	*	*	*	*
!	!	!LO:LB:g=original	!	!	!	!	!
=5-	=5-	=5-	=5-	=5-	=5-	=5-	=5-
8F\	.	8A\	.	.	.	1r	.
8G\	.	8B-\	.	.	.	.	.
8A\	.	8c\	.	.	.	.	.
8F\	.	8A\	.	.	.	.	.
!	!	!LO:N:acc=#	!	!	!	!	!
4G\	.	4Bn\	.	.	.	.	.
!LO:SIC:v:t=custos D	!	!	!	!	!	!	!
4E\	-ſche	2c\	.	.	.	.	.
*xywh-pl-gd--ee1638-8o--0184:4673,1301,3372,564	*	*	*	*	*	*	*
!LO:LB:g=original	!	!	!	!	!	!	!
2D/	ro-	.	.	.	.	2r	.
!	!	!LO:SIC:s=4B	!	!	!	!	!
!	!	!LO:N:acc=#	!	!	!	!	!
.	.	4Bn\	.	.	.	.	.
2C/	-ſe	2c\	-ſe	.	.	4r	.
.	.	.	.	.	.	4cc\	Chi
=6-	=6-	=6-	=6-	=6-	=6-	=6-	=6-
1r	.	1r	.	4r	.	4.a\	vi-
.	.	.	.	4f\	Chi	.	.
.	.	.	.	.	.	8g/	de al
!	!	!	!	!	!	!	!LO:MO:mod=mon-
.	.	.	.	4.d\	vi-	4a\	mo(n)-
.	.	.	.	.	.	4b-y\	-do
!	!	!	!	!LO:SIC:v:t=custos f	!	!	!
.	.	.	.	8g\	de al	.	.
*	*	*	*	*xywh-pl-gd--ee1638-8o--0488:4582,2364,3286,543	*	*	*
!	!	!	!	!LO:LB:g=original	!	!	!
2r	.	4r	.	4f\	mon-	1cc	mai
.	.	4c\	Chi	4e\	-do	.	.
4r	.	4.A/	vi-	2f\	mai	.	.
4F\	Chi	.	.	.	.	.	.
.	.	8G/	de al	.	.	.	.
=7-	=7-	=7-	=7-	=7-	=7-	=7-	=7-
4.D/	vi-	4A/	mon-	1r	.	2r	.
.	.	4B-y\	-do	.	.	.	.
8G\	de al	.	.	.	.	.	.
!	!LO:MO:mod=mon-	!	!	!	!	!	!
4F\	mo(n)-	1c	mai	.	.	4r	.
*	*	*	*	*	*	*	*ij
4E\	-do	.	.	.	.	4cc\	Chi
2F\	mai	.	.	4r	.	4.a\	vi-
.	.	.	.	4f\	Chi	.	.
.	.	.	.	.	.	8g/	de al
!	!	!	!	!	!	!	!LO:MO:mod=mon-
2r	.	2r	.	4.d\	vi-	4a\	mo(n)-
.	.	.	.	.	.	4b-\	-do
.	.	.	.	8g\	de al	.	.
=8-	=8-	=8-	=8-	=8-	=8-	=8-	=8-
!	!	!	!	!	!LO:MO:mod=mon-	!	!
1r	.	1r	.	4f\	mo(n)-	1cc	mai
.	.	.	.	4e\	-do	.	.
.	.	.	.	2f\	mai	.	.
!	!LO:MO:mod=sí	!	!LO:MO:mod=sí	!	!	!	!
1F	ſi	1c	ſi	2r	.	2r	.
*	*	*	*	*	*	*	*Xij
!	!	!	!	!	!LO:MO:mod=sí	!	!
.	.	.	.	1f\	ſi	1a\	ſí
=9-	=9-	=9-	=9-	=9-	=9-	=9-	=9-
1.C	dol-	1.c	dol-	.	.	.	.
.	.	.	.	1e	dol-	1g	dol-
!	!	!	!	!	!	!LO:SIC:v:t=custos g	!
2D/	-ci	2A/	-ci	2d\	-ci	2f#X/	-ci
*	*	*	*	*	*	*xywh-pl-gd--ee1638-8o--0640:4610,2269,3440,690	*
!	!	!	!	!	!	!LO:LB:g=original	!
=10-	=10-	=10-	=10-	=10-	=10-	=10-	=10-
1GG	ſpo-	1B-	ſpo-	1d	ſpo-	1g	ſpo-
!	!LO:MO:mod=-glie?	!LO:SIC:v:t=custos F	!LO:MO:mod=-glie?	!	!LO:MO:mod=-glie?	!	!LO:MO:mod=-glie?
1AA	-glie	1A	-glie	1c#X	-glie	1e	-glie
*	*	*xywh-pl-gd--ee1638-8o--0336:4599,2809,3368,641	*	*	*	*	*
!	!	!LO:LB:g=original	!	!	!	!	!
=11-	=11-	=11-	=11-	=11-	=11-	=11-	=11-
0r	.	0r	.	4d\	Co-	4fny/	Co-
.	.	.	.	4e\	ſi ha-	4g/	ſi ha-
!	!	!	!	!	!LO:MO:mod=-ves-	!	!LO:MO:mod=-ves-
.	.	.	.	2f\	-ueſ-	2a\	-ueſ-
.	.	.	.	4d\	-s'io	4f/	-s'io
.	.	.	.	2e\	del	2g/	del
.	.	.	.	4f\	bel	4a\	bel
=12-	=12-	=12-	=12-	=12-	=12-	=12-	=12-
2r	.	2r	.	2g\	ve-	2b-\	ve-
!	!	!	!	!LO:SIC:v:t=custos f	!	!	!
4D/	Co-	4F/	Co-	2f\	-lo	2a\	-lo
!	!	!	!LO:MO:mod=si_ha-	!	!	!	!
4E\	-ſi ha-	4G/	-ſi a-	.	.	.	.
*	*	*	*	*xywh-pl-gd--ee1638-8o--0488:4570,2792,3378,671	*	*	*
!	!LO:MO:mod=-ves-	!	!LO:MO:mod=-ves-	!LO:LB:g=original	!	!	!
2F\	-ueſ-	2A/	-ueſ-	1r	.	1r	.
4D/	-s'io	4F/	-s'io	.	.	.	.
2E\	del	2G/	del	.	.	.	.
=13-	=13-	=13-	=13-	=13-	=13-	=13-	=13-
.	.	.	.	1r	.	1r	.
4F\	bel	4A/	bel	.	.	.	.
!LO:SIC:v:t=custos F	!	!	!	!	!	!	!
2G\	ve-	2B-\	ve-	.	.	.	.
*xywh-pl-gd--ee1638-8o--0184:4684,1807,3269,610	*	*	*	*	*	*	*
!LO:LB:g=original	!	!	!	!	!	!	!
1F	-lo	1c	-lo	4f\	Co-	4a\	Co-
!	!	!	!	!	!	!	!LO:MO:mod=-si_ha-
.	.	.	.	4g\	-ſi ha-	4b-\	-ſi a-
!	!	!	!	!	!LO:MO:mod=-ves-	!	!LO:MO:mod=-ves-
.	.	.	.	2a\	-ueſ-	2cc\	-ueſ
=14-	=14-	=14-	=14-	=14-	=14-	=14-	=14-
1r	.	2r	.	4f\	-s'io	4a\	s'io
.	.	.	.	2g\	del	2b-\	del
.	.	4G/	Co-	.	.	.	.
.	.	4A/	-ſi ha-	4f\	bel	4cc\	bel
!	!	!	!LO:MO:mod=-ves-	!	!	!	!
4BB-/	Co-	2B-\	-ueſ-	2f\	ve-	2.dd\	ve-
4C/	-ſi ha-	.	.	.	.	.	.
!	!LO:MO:mod=-ves-	!	!	!	!	!	!
2D/	-ueſ-	4A/	-s'io	2.f\	lo al-	.	.
.	.	2B-\	del	.	.	4.d/	lo al
=15-	=15-	=15-	=15-	=15-	=15-	=15-	=15-
4BB-/	-s'io	.	.	.	.	.	.
.	.	.	.	.	.	8d/	tre-
2C/	del	4G/	bel	2e-X\	-tre	2g/	-tan-
.	.	4A/	ve-	.	.	.	.
!	!	!	!	!	!	!LO:SIC:s=4f#i	!
4D/	bel	2B-\	lo al-	2d\	tan-	4f#yX/	.
!	!	!	!	!	!	!LO:SIC:v:t=custos dd	!
2E-X\	ve-	.	.	.	.	2g/	-to
.	.	4c\	-tre-	4.cny/	.	.	.
4.D/	lo al-	2d\	-tan-	.	.	2r	.
.	.	.	.	8B-/	.	.	.
.	.	.	.	2B-/	.	.	.
!LO:SIC:s=8E	!	!	!	!	!	!	!
8Eny\	-tre-	.	.	.	.	.	.
=16-	=16-	=16-	=16-	=16-	=16-	=16-	=16-
1F	-tan-	1c	-to	.	.	1r	.
.	.	.	.	8A/	.	.	.
.	.	.	.	8G/	.	.	.
.	.	.	.	2A/	.	.	.
2BB-/	-to	2r	.	1B-	-to	2r	.
*	*	*	*	*	*	*xywh-pl-gd--ee1638-8o--0640:4633,3404,3393,596	*
1B-\	O	1d\	O	.	.	1dd\	O
=17-	=17-	=17-	=17-	=17-	=17-	=17-	=17-
.	.	.	.	2f\	O	.	.
4A\	in-	4f\	in-	4a\	in-	4cc\	in-
!	!LO:MO:mod=-con-	!LO:SIC:v:t=custos c	!LO:MO:mod=-con-	!	!LO:MO:mod=-con-	!	!LO:MO:mod=-con-
4G\	-co-	4B-\	-co-	4d\	-co-	4b-\	-co-
*	*	*xywh-pl-gd--ee1638-8o--0336:4629,3399,3348,600	*	*	*	*	*
!	!	!LO:LB:g=original	!	!	!	!	!
4.F\	-ſtan-	4c\	-ſtan-	4f\	-ſtan-	4.a\	-ſtan-
!	!	!	!	!LO:SIC:v:t=custos e	!	!	!
.	.	4c\	-tia	4f\	-tia	.	.
8G\	-tia	.	.	.	.	8b-\	-tia
*	*	*	*	*xywh-pl-gd--ee1638-8o--0488:4547,3452,3378,566	*	*	*
!	!	!	!	!LO:LB:g=original	!	!	!
4A\	de	4c\	de	4eny\	de	4cc\	de
4F\	l'hu-	4f\	l'hu-	4A/	l'hu-	4dd\	l'hu-
=18-	=18-	=18-	=18-	=18-	=18-	=18-	=18-
4G\	-ma-	4d\	-ma-	4B-/	-ma-	4b-\	-ma-
4D/	-ne	2d\	-ne	4F/	-ne	4a\	-ne
!LO:SIC:v:t=custos D	!	!	!	!	!	!	!
2E-X\	co-	.	.	2G/	co-	1g	co-
.	.	4c\	co-	.	.	.	.
*xywh-pl-gd--ee1638-8o--0184:4684,2371,3349,598	*	*	*	*	*	*	*
!LO:LB:g=original	!	!	!	!	!	!	!
1D	-ſe	1d	-ſe	1A	-ſe	.	.
.	.	.	.	.	.	2f#X/	-ſe
=19-	=19-	=19-	=19-	=19-	=19-	=19-	=19-
0r	.	0r	.	1d	Pur	2r	.
.	.	.	.	.	.	1dd	Pur
.	.	.	.	2.f\	que-	.	.
.	.	.	.	.	.	2.cc\	que
.	.	.	.	4e\	ſto è	.	.
=20-	=20-	=20-	=20-	=20-	=20-	=20-	=20-
1r	.	2r	.	2f\	fur-	.	.
*	*	*	*	*	*	*	*
.	.	.	.	.	.	4a\	ſto è
.	.	4r	.	2g\	-to	2b-\	fur-
.	.	4G/	e	.	.	.	.
4r	.	8F/	vien	4r	.	2a\	-to
.	.	8G/	.	.	.	.	.
4F\	e	8A/	.	4f\	e	.	.
.	.	8B-\	.	.	.	.	.
8F\	vien	4c\	.	8a\	vien	4r	.
8Eny\	.	.	.	8g\	.	.	.
8D/	.	2F/	chi	8f\	.	4a\	e
8C/	.	.	.	8e\	.	.	.
=21-	=21-	=21-	=21-	=21-	=21-	=21-	=21-
2BB-/	.	.	.	2d\	.	8dd\	vien
.	.	.	.	.	.	8cc\	.
.	.	2G/	me	.	.	8b-\	.
.	.	.	.	.	.	8a\	.
2C/	chi	.	.	2e\	chi	4g/	.
!	!	!	!	!	!	!LO:SIC:v:t=custos b-	!
.	.	2A/	ne	.	.	4cc\	chi
*	*	*	*	*	*	*	*
!	!	!	!	!	!	!LO:LB:g=original	!
2D/	me	.	.	2f\	me	4a\	me
.	.	4.B-\	ſpo-	.	.	2fny/	ne
2BB-/	ne	.	.	4d\	ne	.	.
!	!	!LO:SIC:s=8cL	!	!	!	!	!
.	.	8c\	.	.	.	.	.
.	.	8d\	.	2f\	ſpo-	2b-\	ſpo-
!	!	!LO:SIC:s=8B-J	!	!	!	!	!
!	!	!LO:SIC:v:t=custos c	!	!	!	!	!
.	.	8B-\	.	.	.	.	.
*	*	*xywh-pl-gd--ee1638-8o--0336:4589,3867,3348,661	*	*	*	*	*
!	!	!LO:LB:g=original	!	!	!	!	!
=22-	=22-	=22-	=22-	=22-	=22-	=22-	=22-
2F\	ſpo-	1c	.	.	.	.	.
.	.	.	.	8e\	.	8a\	.
.	.	.	.	8d\	.	8g\	.
!	!	!	!	!LO:SIC:v:t=custos f	!	!	!
2F\	-glie	.	.	2c/	.	2a\	.
*	*	*	*	*xywh-pl-gd--ee1638-8o--0488:4582,3926,3413,590	*	*	*
!	!	!	!	!LO:LB:g=original	!	!	!
2r	.	1B-	-glie	1f	-glie	2d/	-glie
1B-\	O	.	.	.	.	1dd\	O
=23-	=23-	=23-	=23-	=23-	=23-	=23-	=23-
.	.	2d\	O	2f\	O	.	.
4A\	in-	4f\	in-	4a\	in-	4cc\	in-
!	!LO:MO:mod=-con-	!	!LO:MO:mod=-con-	!	!LO:MO:mod=-con-	!	!LO:MO:mod=-con-
4G\	-co-	4B-\	-co-	4d\	-co-	4b-\	-co-
4.F\	-ſtan-	4c\	-ſtan-	4f\	-ſtan-	4.a\	-ſtan-
.	.	4c\	-tia	4f\	-tia	.	.
8G\	-tia	.	.	.	.	8b-\	-tia
4A\	de	4c\	de	4e\	de	4cc\	de
!LO:SIC:v:t=custos G	!	!	!	!	!	!	!
4F\	l'hu-	4f\	l'hu-	4A/	l'hu-	4dd\	l'hu-
*xywh-pl-gd--ee1638-8o--0184:4650,2912,3338,587	*	*	*	*	*	*	*
!LO:LB:g=original	!	!	!	!	!	!	!
=24-	=24-	=24-	=24-	=24-	=24-	=24-	=24-
4G\	-ma-	4d\	-ma-	4B-/	-ma-	4b-\	-ma-
4D/	-ne	2d\	-ne	4F/	-ne	4a\	-ne
2E-X\	co-	.	.	2G/	co-	1g	co-
.	.	4c\	co-	.	.	.	.
1D	-ſe	1d	-ſe	1A	-ſe	.	.
.	.	.	.	.	.	2f#X/	-ſe
=25-	=25-	=25-	=25-	=25-	=25-	=25-	=25-
0r	.	0r	.	1d	Pur	2r	.
.	.	.	.	.	.	1dd	Pur
.	.	.	.	2.f\	que-	.	.
.	.	.	.	.	.	2.cc\	que-
!	!	!	!	!	!LO:MO:mod=-sto è	!	!
.	.	.	.	4e\	ſt' è	.	.
=26-	=26-	=26-	=26-	=26-	=26-	=26-	=26-
1r	.	1r	.	2f\	fur-	.	.
.	.	.	.	.	.	4a\	ſto è
.	.	.	.	2g\	-to	2b-\	fur-
!	!	!	!	!	!	!LO:SIC:v:t=custos g	!
1D	Pur	2r	.	1r	.	1a	-to
.	.	1d\	Pur	.	.	.	.
*	*	*	*	*	*	*xywh-pl-gd--ee1638-8o--0640:4704,3919,3311,608	*
!	!	!	!	!	!	!LO:LB:g=original	!
=27-	=27-	=27-	=27-	=27-	=27-	=27-	=27-
2.F\	que-	.	.	1r	.	1r	.
.	.	2.c\	que-	.	.	.	.
4Eny\	ſto è	.	.	.	.	.	.
2F\	fur-	.	.	2r	.	2r	.
!	!	!	!LO:MO:mod=-sto è	!	!	!	!
.	.	4A/	ſt' è	.	.	.	.
2G\	-to	2B-\	fur-	4r	.	4r	.
.	.	.	.	4d\	e	4g/	e
=28-	=28-	=28-	=28-	=28-	=28-	=28-	=28-
!	!	!	!	!LO:SIC:s=8fL	!	!	!
4r	.	2A/	-to	8f\	vien	8a\	vien
.	.	.	.	8e\	.	8g\	.
4F\	e	.	.	8f\	.	8a\	.
!	!	!	!	!LO:SIC:s=8gJ	!	!	!
!	!	!	!	!LO:SIC:v:t=custos a	!	!	!
.	.	.	.	8g\	.	8b-\	.
*	*	*	*	*xywh-pl-gd--ee1638-8o--0488:4570,4447,3401,694	*	*	*
!	!	!	!	!LO:LB:g=original	!	!	!
8F\	vien	2r	.	4.a\	.	4.cc\	.
8G\	.	.	.	.	.	.	.
8A\	.	.	.	.	.	.	.
8B-\	.	.	.	16g\	.	16b-\	.
.	.	.	.	16f\	.	16a\	.
2c\	.	4r	.	2e\	.	2g/	.
.	.	4c\	e	.	.	.	.
!	!	!LO:SIC:s=8cL	!	!	!	!	!
2r	.	8c\	vien	4e\	e	4g/	e
.	.	8B-\	.	.	.	.	.
.	.	8A/	.	4.f\	vien	4.a\	vien
!	!	!LO:SIC:s=8GJ	!	!	!	!	!
!	!	!LO:SIC:v:t=custos F	!	!	!	!	!
.	.	8G/	.	.	.	.	.
*	*	*xywh-pl-gd--ee1638-8o--0336:4629,4447,3398,671	*	*	*	*	*
!	!	!LO:LB:g=original	!	!	!	!	!
=29-	=29-	=29-	=29-	=29-	=29-	=29-	=29-
0r	.	2F/	.	.	.	.	.
.	.	.	.	8e\	.	8g/	.
.	.	.	.	8d\	.	8fny/	.
.	.	.	.	8c\	.	8e/	.
.	.	2G/	chi	4B-/	.	4d/	.
.	.	.	.	4d\	chi	4g/	chi
.	.	2A/	me	4c/	me	4e/	me
.	.	.	.	4F/	ne	4cc\	ne
.	.	2F/	ne	2.f\	ſpo-	4.a\	ſpo-
.	.	.	.	.	.	16g/	.
.	.	.	.	.	.	16f/	.
=30-	=30-	=30-	=30-	=30-	=30-	=30-	=30-
!	!	!	!	!	!	!LO:SIC:v:t=custos g	!
4r	.	2c\	ſpo-	.	.	2g/	.
4C/	e	.	.	8e\	.	.	.
.	.	.	.	8d\	.	.	.
*	*	*	*	*	*	*xywh-pl-gd--ee1638-8o--0640:4645,4433,3440,702	*
!LO:SIC:s=8CL	!	!	!	!	!	!LO:LB:g=original	!
8C/	vien	4c\	-glie	2e\	.	4g/	-glie
8BB-/	.	.	.	.	.	.	.
8AA/	.	4c\	e	.	.	4a\	e
!LO:SIC:s=8GGJ	!	!	!	!	!	!	!
!LO:SIC:v:t=custos FF	!	!	!	!	!	!	!
8GG/	.	.	.	.	.	.	.
*xywh-pl-gd--ee1638-8o--0184:4661,3350,3430,702	*	*	*	*	*	*	*
!LO:LB:g=original	!	!	!	!	!	!	!
2FF/	.	8f\	vien	4A/	-glie	8a\	vien
.	.	8e\	.	.	.	8g/	.
.	.	8d\	.	4a\	e	8f/	.
.	.	8c\	.	.	.	8e/	.
2GG/	chi	4B-\	.	8g\	vien	4d/	.
.	.	.	.	8f\	.	.	.
.	.	4B-\	chi	8e\	.	4g/	chi
.	.	.	.	8d\	.	.	.
=31-	=31-	=31-	=31-	=31-	=31-	=31-	=31-
2AA/	me	8A\	me	4c/	.	4e/	me
.	.	8B-\	.	.	.	.	.
.	.	2c\	.	4c/	chi	4e/	ne
2FF/	ne	.	.	4A/	me	2.f/	ſpo-
.	.	4A/	ne	4c/	ne	.	.
1C	ſpo-	1G	ſpo-	1c	ſpo-	.	.
.	.	.	.	.	.	8e/	.
.	.	.	.	.	.	8d/	.
.	.	.	.	.	.	2e/	.
=32-	=32-	=32-	=32-	=32-	=32-	=32-	=32-
0FFl	-glie.	0Fl	-glie.	0cl	-glie.	0fl	-glie.
==	==	==	==	==	==	==	==
*-	*-	*-	*-	*-	*-	*-	*-
!!!system-decoration: [(*)]
!!LO:MO:ori
!!!RDF**kern: l = terminal long
!!LO:MO:mod
!! !!!RDF**kern: i = editorial accidental
!!LO:MO:end
!!!ENC: Mateusz Solarz
!!!END: 2022-06-25
!!!ENC: Natalia Wrzos
!!!END: 2022-07-09
!!!ENC-modern: Andrzej Kubiczek
!!!END-modern: 2022-10-09
!!!filter-modern: shed -e "s/^custos:/Xcustos:/I" | shed -e "s/TX(.*):t=P:/tx$1:t=P:/LG" | shed -e "s/LO:N:/LO:n:$1/L" | sic -sq | modori -m | autostem -r | tie -s | humtr -p | shed -e "s/-//B" | autobeam
!!!YEC: Copyright 2022 Narodowy Instytut Fryderyka Chopina (https://polishscores.org)
!!!YEM: License CC-BY-4.0 (https://creativecommons.org/licenses/by/4.0)
!!!IIIF: https://repozytorium.nifc.pl/islandora/object/pl-gd%3A57883/datastream/IIIF/view
!!!ENC-iiif: Zuzanna Daniec
!!!END-iiif: 2022-08-30
